newicons/emoji_scroll.svg

<?xml version="1.0" encoding="UTF-8" standalone="no"?>
<svg
   version="1.2"
   viewBox="0 0 48 48"
   id="svg11"
   xmlns="http://www.w3.org/2000/svg"
   xmlns:svg="http://www.w3.org/2000/svg">
  <defs
     id="defs1" />
  <path
     d="m 9.2000004,38.601909 -3.7000008,0.148 v 3.730869 H 42.5 v -5.210873 l -3.700001,0.148"
     fill="none"
     stroke="#ffffff"
     stroke-linecap="round"
     stroke-linejoin="round"
     stroke-width="1"
     id="path1"
     style="stroke-width:1;stroke-dasharray:none" />
  <path
     d="M 38.799999,9.398092 42.5,9.250091 V 5.519222 H 5.4999996 v 5.210874 l 3.7000008,-0.148001"
     fill="none"
     stroke="#ffffff"
     stroke-linecap="round"
     stroke-linejoin="round"
     stroke-width="1"
     id="path2"
     style="stroke-width:1;stroke-dasharray:none" />
  <path
     d="M 38.799999,9.398092 22.983092,10.030719 9.2000004,10.582095"
     fill="none"
     stroke="#ffffff"
     stroke-linecap="round"
     stroke-linejoin="round"
     stroke-width="1"
     id="path3"
     style="stroke-width:1;stroke-dasharray:none" />
  <path
     d="M 9.2000004,38.601909 38.799999,37.417905"
     fill="none"
     stroke="#ffffff"
     stroke-linecap="round"
     stroke-linejoin="round"
     stroke-width="1"
     id="path4"
     style="stroke-width:1;stroke-dasharray:none" />
  <path
     d="M 9.2000004,10.582095 V 38.601909"
     fill="none"
     stroke="#ffffff"
     stroke-linecap="round"
     stroke-linejoin="round"
     stroke-width="1"
     id="path5"
     style="stroke-width:1;stroke-dasharray:none" />
  <path
     d="M 38.799999,9.398092 V 37.417905"
     fill="none"
     stroke="#ffffff"
     stroke-linecap="round"
     stroke-linejoin="round"
     stroke-width="1"
     id="path6"
     style="stroke-width:1;stroke-dasharray:none" />
  <path
     d="m 12.790701,15.776911 h 8.146734"
     fill="none"
     stroke="#ffffff"
     stroke-linecap="round"
     stroke-linejoin="round"
     stroke-width="1"
     id="path7"
     style="stroke-width:1;stroke-dasharray:none" />
  <path
     d="M 12.790701,19.660516 H 35.854059"
     fill="none"
     stroke="#ffffff"
     stroke-linecap="round"
     stroke-linejoin="round"
     stroke-width="1"
     id="path8"
     style="stroke-width:1;stroke-dasharray:none" />
  <path
     d="M 12.790701,23.544196 H 35.854059"
     fill="none"
     stroke="#ffffff"
     stroke-linecap="round"
     stroke-linejoin="round"
     stroke-width="1"
     id="path9"
     style="stroke-width:1;stroke-dasharray:none" />
  <path
     d="M 12.790701,27.427875 H 35.854059"
     fill="none"
     stroke="#ffffff"
     stroke-linecap="round"
     stroke-linejoin="round"
     stroke-width="1"
     id="path10"
     style="stroke-width:1;stroke-dasharray:none" />
  <path
     d="M 12.790701,31.31148 H 35.854059"
     fill="none"
     stroke="#ffffff"
     stroke-linecap="round"
     stroke-linejoin="round"
     stroke-width="1"
     id="path11"
     style="stroke-width:1;stroke-dasharray:none" />
</svg>

<?xml version="1.0" encoding="UTF-8"?><svg id="a" xmlns="http://www.w3.org/2000/svg" viewBox="0 0 48 48"><defs><style>.m{fill:none;stroke:#fff;stroke-linecap:round;stroke-linejoin:round;}</style></defs><path id="b" class="m" d="M9.2,38.6019l-3.7.148v3.7309h37v-5.2109l-3.7.148"/><path id="c" class="m" d="M38.8,9.3981l3.7-.148v-3.7309H5.5v5.2109l3.7-.148"/><path id="d" class="m" d="M38.8,9.3981l-15.8169.6326-13.7831.5514"/><path id="e" class="m" d="M9.2,38.6019l29.6-1.184"/><path id="f" class="m" d="M9.2,10.5821v28.0198"/><path id="g" class="m" d="M38.8,9.3981v28.0198"/><path id="h" class="m" d="M12.7907,15.7769h8.1467"/><path id="i" class="m" d="M12.7907,19.6605h23.0634"/><path id="j" class="m" d="M12.7907,23.5442h23.0634"/><path id="k" class="m" d="M12.7907,27.4279h23.0634"/><path id="l" class="m" d="M12.7907,31.3115h23.0634"/></svg>
